X:1
T:Title
%%score { ( 1 3 ) | ( 2 4 ) }
L:1/8
M:4/4
K:D
V:1 treble nm="Grand Piano"
V:3 treble 
V:2 bass 
V:4 bass 
V:1
 z4 z2[Q:1/4=100] DE | FFF[EG] [FA][FA][FA][FA] |[M:3/4] [GB][Bd] [Bd][GB] [FA]2 |[M:1/4] DE | %4
[M:4/4] FFF[EG] [FA][FA][DF][FA] |[M:3/4] [GB]>[FA] AF [CE]2 |[M:1/4] DE | %7
[M:4/4] FFF[EG] [FA][FA][FA][FA] |[M:3/4] BB BB d2 |[M:1/4] BB | %10
[M:4/4] [FA]2 [FA]>[DGB] [DFA]<[A,DF] [A,DF]>[K:bass][G,CE] |[M:3/4] z D- D4 | %12
[M:1/4][K:treble] [FA]>[EG] |[M:4/4] F2 F>F F<[EG] [FA]>[GB] | .F2 z2 z4 | %15
 [DGB]2 [DGB]>[DGB] [DGB]<[DBd] [DBd]>[DGB] | A-[DA-][CEA-][B,GA-] [A,FA]2 [FA][FA] | %17
[M:3/4] [Fd][Fd] [Fd][Fd] [Fd]2 |[M:1/4] [FA][FA] |[M:3/4] BB BB d2 |[M:1/4] BB | %21
[M:4/4] [FA]2 [FA]>[DGB] [DFA]<[A,DF] [A,DF]>[K:bass][G,CE] |[M:7/4] z D- D4 z2 z2 z4 |] %23
V:2
 z4 z2 [D,F,][D,G,D] | [D,A,D][D,A,D][D,A,D][D,A,] [D,D][D,D][D,D][D,D] | %2
[M:3/4] [G,D][G,D] [G,D][G,D] [D,D]2 |[M:1/4] [F,A,][A,C] | %4
[M:4/4] [D,A,D][D,A,D][D,A,D][D,A,] [D,D][D,D][D,A,][D,D] | %5
[M:3/4] [D,D]>[D,D] [F,D][D,A,D] [A,,A,]2 |[M:1/4] [D,F,][D,G,D] | %7
[M:4/4] [D,A,D][D,A,D][D,A,D][D,A,] [D,D][D,D][D,D][D,D] | %8
[M:3/4][K:treble] [G,DG][G,DG] [G,DG][G,DG] [G,B,G]2 |[M:1/4] [G,DG][G,DG] | %10
[M:4/4][K:bass] [D,D]2 [D,D]>G,, A,,<A,, A,,>A,, |[M:3/4] z F, A,G, F,2 |[M:1/4] [D,D]>[D,D] | %13
[M:4/4] [D,A,D]2 [D,A,D]>[D,A,D] [D,A,D]<[D,D] [D,D]>[D,D] | [D,D]D,A,,A,, D,2 D,>D, | %15
 G,2 G,>G, G,<G, G,>G, | D,F,A,A,, D,2 [D,D][D,D] |[M:3/4] [D,A,][D,A,] [D,A,][D,A,] [D,A,]2 | %18
[M:1/4] [D,D][D,D] |[M:3/4][K:treble] [G,DG][G,DG] [G,DG][G,DG] [G,B,G]2 |[M:1/4] [G,DG][G,DG] | %21
[M:4/4][K:bass] [D,D]2 [D,D]>G,, A,,<A,, A,,>A,, |[M:7/4] z F,A,G, F,2 z2 z2 z4 |] %23
V:3
 x8 | x8 |[M:3/4] x6 |[M:1/4] x2 |[M:4/4] x8 |[M:3/4] x6 |[M:1/4] x2 |[M:4/4] x8 |[M:3/4] x6 | %9
[M:1/4] x2 |[M:4/4] x15/2[K:bass] x/ |[M:3/4] .[F,D]2 CB, A,2 |[M:1/4][K:treble] x2 |[M:4/4] x8 | %14
 A-[DFA-][CGA-][CGA-] [DFA]2 [DFA]>[DFA] | x8 | .[DF]2 z2 z4 |[M:3/4] x6 |[M:1/4] x2 |[M:3/4] x6 | %20
[M:1/4] x2 |[M:4/4] x15/2[K:bass] x/ |[M:7/4] .[F,D]2 CB, A,2 z2 z2 z4 |] %23
V:4
 x8 | x8 |[M:3/4] x6 |[M:1/4] x2 |[M:4/4] x8 |[M:3/4] x6 |[M:1/4] x2 |[M:4/4] x8 | %8
[M:3/4][K:treble] x6 |[M:1/4] x2 |[M:4/4][K:bass] x8 |[M:3/4] D,6 |[M:1/4] x2 |[M:4/4] x8 | x8 | %15
 x8 | x8 |[M:3/4] x6 |[M:1/4] x2 |[M:3/4][K:treble] x6 |[M:1/4] x2 |[M:4/4][K:bass] x8 | %22
[M:7/4] D,6 z2 z2 z4 |] %23

